img/icones/telefone.svg

<svg width="20" height="20" viewBox="0 0 20 20" fill="none" xmlns="http://www.w3.org/2000/svg">
<path d="M16.024 12.7168L13.907 12.4748C13.6582 12.4456 13.406 12.4731 13.1694 12.5554C12.9328 12.6377 12.718 12.7725 12.541 12.9498L11.007 14.4828C8.64207 13.2795 6.71986 11.357 5.517 8.99182L7.057 7.44982C7.417 7.09182 7.592 6.59182 7.533 6.08282L7.292 3.98282C7.24462 3.57605 7.04925 3.20094 6.74313 2.92893C6.437 2.65692 6.04151 2.50703 5.632 2.50782H4.192C3.25 2.50782 2.467 3.29182 2.525 4.23282C2.967 11.3498 8.658 17.0328 15.767 17.4748C16.707 17.5328 17.491 16.7498 17.491 15.8078V14.3668C17.4931 13.9594 17.3446 13.5656 17.074 13.2611C16.8034 12.9565 16.4298 12.7627 16.025 12.7168H16.024Z" fill="#E2AE5E"/>
</svg>

<svg width="20" height="20" fill="none" xmlns="http://www.w3.org/2000/svg">
  <path d="m16.024 12.717-2.117-.242a1.657 1.657 0 0 0-1.366.475l-1.534 1.533a12.538 12.538 0 0 1-5.49-5.491l1.54-1.542c.36-.358.535-.858.476-1.367l-.241-2.1a1.668 1.668 0 0 0-1.66-1.475h-1.44c-.942 0-1.725.784-1.667 1.725.442 7.117 6.133 12.8 13.242 13.242.94.058 1.724-.725 1.724-1.667v-1.441a1.652 1.652 0 0 0-1.466-1.65Z" fill="url(#a)"/>
  <defs>
    <linearGradient id="a" x1="10.007" y1="2.508" x2="10.007" y2="17.478" gradientUnits="userSpaceOnUse">
      <stop stop-color="#FFBF00"/>
      <stop offset="1" stop-color="#F2A50C"/>
    </linearGradient>
  </defs>
</svg>
